X:1
T:Men of Argyll
R:March
Z:Transcribed 18 January 2017 by Stephen Beitzel, setting from RSPBA
C:PM J. McLellan/JHP, Arr. STPB
M:2/4
L:1/8
K:D
[|: {g}f/2>e/2 | {Gdc}d{g}B {GdGe}B{Gdc}d/2>e/2 | {g}fa {fg}f{g}e/2>d/2 | {gcd}c{e}A {GAG}A>B | {g}c/2<{d}A/2{g}c/2>d/2 {gef}e{g}f/2>e/2 |
{Gdc}d{g}c/2>d/2 {gBd}B{Gdc}d/2>e/2 | {g}fa {fg}f{g}d/2>e | {g}f/2>e/2{g}f/2<a/2 {cd}c{e}A | {g}B2 {GBGe}B :|]
[|: {gf}g | {ag}a{Gdc}d {gfg}f{g}e/2>d/2 | {g}fa {fg}f{g}c/2>d/2 | {gef}e{g}A {gcd}c>d |1 {gef}e/2>c/2{g}A/2>{d}c/2 {gef}e{gf}g |
{ag}a{Gdc}d {gfg}f{g}e/2>d | {g}fa {fg}f{g}d/2>e/2 | {g}f/2>e/2{g}f/2<a/2 {cd}c>{e}A | {g}B2 {GdGe}B :|]
|2 {gef}e/2>c/2{g}A/2>{d}c/2 {gef}e{g}f/2>e/2 | {Gdc}d{g}c/2>d/2 {gBd}B{Gdc}d/2>e/2 | {g}fa {fg}f{g}d/2>e/2 | {g}f/2>e/2{g}f/2<a/2 {cd}c{e}A | {g}B2 {GdGe}B |]
